<?xml version="1.0" encoding="UTF-8"?>
<map version="1.11" tiledversion="1.12.2" orientation="orthogonal" renderorder="right-down" width="17" height="21" tilewidth="16" tileheight="16" infinite="0" nextlayerid="9" nextobjectid="6">
 <tileset firstgid="1" source="../tilesets/I1_Room_Builder.tsx"/>
 <tileset firstgid="8969" source="../tilesets/I2_Generic_and_Living.tsx"/>
 <tileset firstgid="11241" source="../tilesets/I3_Kitchen_Bath_Bedroom.tsx"/>
 <tileset firstgid="14633" source="../tilesets/I4_Work_and_Civic.tsx"/>
 <tileset firstgid="18281" source="../tilesets/I5_Shops_and_Studios.tsx"/>
 <tileset firstgid="23049" source="../tilesets/I6_Hobby_and_Seasonal.tsx"/>
 <tileset firstgid="28000" source="casino-3-extra.tsx"/>
 <layer id="1" name="subfloor" width="17" height="21">
  <data encoding="csv">
0,0,0,0,0,0,0,0,0,0,0,0,0,0,0,0,0,
0,0,0,0,0,0,0,0,0,0,0,0,0,0,0,0,0,
0,0,0,0,0,0,0,0,0,0,0,0,0,0,0,0,0,
0,0,0,0,0,0,0,0,0,0,0,0,0,0,0,0,0,
0,0,0,0,0,0,0,0,0,0,0,0,0,0,0,0,0,
0,0,0,0,0,0,0,0,0,0,0,0,0,0,0,0,0,
0,0,0,0,0,0,0,0,0,0,0,0,0,0,0,0,0,
0,0,0,0,0,0,0,0,0,0,0,0,0,0,0,0,0,
0,0,0,0,0,0,0,0,0,0,0,0,0,0,0,0,0,
0,0,0,0,0,0,0,0,0,0,0,0,0,0,0,0,0,
0,0,0,0,0,0,0,0,0,0,0,0,0,0,0,0,0,
0,0,0,0,0,0,0,0,0,0,0,0,0,0,0,0,0,
0,0,0,0,0,0,0,0,0,0,0,0,0,0,0,0,0,
0,0,0,0,0,0,0,0,0,0,0,0,0,0,0,0,0,
0,0,0,0,0,0,0,0,0,0,0,0,0,0,0,0,0,
0,0,0,0,0,0,0,0,0,0,0,0,0,0,0,0,0,
0,0,0,0,0,0,0,0,0,0,0,0,0,0,0,0,0,
0,0,0,0,0,0,0,0,0,0,0,0,0,0,0,0,0,
0,0,0,0,0,0,0,0,0,0,0,0,0,0,0,0,0,
0,0,0,0,0,0,0,0,0,0,0,0,0,0,0,0,0,
0,0,0,0,0,0,0,0,0,0,0,0,0,0,0,0,0
</data>
 </layer>
 <layer id="2" name="floor" width="17" height="21">
  <data encoding="csv">
0,4242,2805,2805,2805,2805,28000,28001,28002,28003,28004,2805,2805,2805,2805,4247,0,
0,4318,3133,3133,3133,3133,28005,22362,28006,22364,28007,3133,3133,3133,3133,4323,0,
0,4394,4396,4396,4396,4396,28008,28009,28010,28011,28012,4396,4396,4396,4396,4399,0,
0,4319,3307,3308,3308,3308,3308,3308,3308,3308,3308,3308,3308,3308,3308,4322,0,
0,4166,2805,2805,3130,3384,3384,3384,3384,3384,3384,3384,3128,2805,2805,4171,0,
0,4318,3133,3133,3134,3384,3384,3384,3384,3384,3384,3384,3132,3133,3133,4323,0,
0,4394,4396,4396,4469,3383,3384,3384,3384,3384,3384,3384,4241,4396,4396,4399,0,
0,4319,3383,3384,3384,3384,3384,3384,3384,3384,3384,3384,3384,3384,3384,4322,0,
0,4319,3383,3384,3384,3384,3384,3384,3384,3384,3384,3384,3384,3384,3384,4322,0,
0,4319,3383,3384,3384,3384,3384,3384,3384,3384,3384,3384,3384,3384,3384,4322,0,
0,4319,28013,28014,28014,28014,28014,28014,28014,28014,28014,28014,28014,28014,28014,4322,0,
0,4319,3383,3384,3384,3384,3384,3384,3384,3384,3384,3384,3384,3384,3384,4322,0,
0,4319,3383,3384,3384,3384,3384,3384,3384,3384,3384,3384,3384,3384,3384,4322,0,
0,4319,3383,3384,3384,3384,3384,3384,3384,3384,3384,3384,3384,3384,3384,4322,0,
0,4319,28013,28014,28014,28014,28014,28014,28014,28014,28014,28014,28014,28014,28014,4322,0,
2805,4395,28013,28014,28014,28014,28014,28014,28014,28014,28014,28014,28014,28014,28014,4398,2805,
4396,4471,3383,3384,3384,3384,3384,3384,3384,3384,3384,3384,3384,3384,3384,4474,4396,
3308,3308,3309,3384,3384,3384,3384,3384,3384,3384,3384,3384,3384,3384,3384,3308,3308,
2805,2805,2805,2805,3130,3384,3384,3384,3384,3384,3384,3384,3128,2805,2805,2805,2805,
4396,4396,4396,4396,4469,3383,3384,3384,3384,3384,3384,3384,4241,4396,4396,4396,4396,
3308,3308,3308,3308,3308,3309,3384,3384,3384,3384,3384,3384,3308,3308,3308,3308,3308
</data>
 </layer>
 <layer id="3" name="props" width="17" height="21">
  <data encoding="csv">
0,0,0,0,0,21343,0,0,0,0,0,21343,0,0,0,0,0,
0,0,21862,21863,21864,21359,28015,28016,28017,28018,28019,21359,21859,21860,21861,0,0,
0,0,21878,21879,21880,28020,28021,28022,28023,28024,28025,28020,21875,21876,21877,0,0,
0,0,21894,21895,21896,21391,28026,28027,28028,28029,28030,21391,21891,21892,21893,0,0,
0,0,0,0,0,0,28031,28032,28033,28034,28035,0,0,0,0,0,0,
0,0,22059,22060,0,0,0,0,0,0,0,0,0,22091,22092,0,0,
0,0,28036,28037,28038,0,21955,21956,21956,21958,21959,0,28039,28040,28041,0,0,
0,0,21909,28042,28043,0,21971,21972,21973,21974,21975,0,28044,28045,21861,0,0,
0,0,22569,22570,22571,0,21987,21988,21989,21990,21991,0,22617,22618,22619,0,0,
0,0,22585,22586,22587,0,0,0,0,0,0,0,22633,22634,22635,0,0,
0,0,22228,28046,22230,22231,0,0,0,0,0,0,0,0,0,0,0,
0,0,22244,22245,22246,22247,22248,0,0,0,22169,22170,22171,22172,22173,0,0,
0,0,0,22261,22262,22263,22264,0,0,0,22185,22186,22187,22188,0,0,0,
0,0,0,22165,22166,22167,0,0,0,0,0,22202,22203,22204,0,0,0,
0,0,0,0,0,0,0,0,0,0,0,28047,28048,28049,0,0,0,
22101,0,22220,22221,22222,0,22473,22474,22475,22476,0,28050,28051,28052,28053,0,22101,
22117,0,22236,22237,22238,0,22489,22490,22491,22492,22493,28054,28055,28056,28057,0,22118,
0,0,22249,22250,22251,0,22510,22511,22512,22513,22514,28058,28059,28060,28061,0,0,
21907,21908,22064,22065,0,0,22526,22527,22528,22529,22530,0,0,22062,22063,21907,21908,
22019,22020,22080,28062,28063,0,22542,22543,22544,22545,22546,0,28064,28065,22079,28066,22022,
22035,22036,0,28067,28068,0,0,0,0,0,0,0,28069,28070,0,22037,22038
</data>
 </layer>
 <layer id="4" name="overhead" width="17" height="21">
  <data encoding="csv">
0,0,0,0,0,0,0,0,0,0,0,0,0,0,0,0,0,
0,0,0,0,0,0,0,0,0,0,0,0,0,0,0,0,0,
0,0,0,0,0,0,0,0,0,0,0,0,0,0,0,0,0,
0,0,0,0,0,0,0,0,0,0,0,0,0,0,0,0,0,
0,0,0,0,0,0,0,0,0,0,0,0,0,0,0,0,0,
0,0,0,0,0,0,0,0,0,0,0,0,0,0,0,0,0,
0,0,0,0,0,0,0,0,0,0,0,0,0,0,0,0,0,
0,0,0,0,0,0,0,0,0,0,0,0,0,0,0,0,0,
0,0,0,0,0,0,0,0,0,0,0,0,0,0,0,0,0,
0,0,0,0,0,0,0,0,0,0,0,0,0,0,0,0,0,
0,0,0,0,0,0,0,0,0,0,0,0,0,0,0,0,0,
0,0,0,0,0,0,0,0,0,0,0,0,0,0,0,0,0,
0,0,0,0,0,0,0,0,0,0,0,0,0,0,0,0,0,
0,0,0,0,0,0,0,0,0,0,0,0,0,0,0,0,0,
0,0,0,0,0,0,0,0,0,0,0,0,0,0,0,0,0,
0,0,0,0,0,0,0,0,0,0,0,0,0,0,0,0,0,
0,0,0,0,0,0,0,0,0,0,0,0,0,0,0,0,0,
0,0,0,0,0,0,0,0,0,0,0,0,0,0,0,0,0,
0,0,0,0,0,0,0,0,0,0,0,0,0,0,0,0,0,
0,0,0,0,0,0,0,0,0,0,0,0,0,0,0,0,0,
0,0,0,0,0,0,0,0,0,0,0,0,0,0,0,0,0
</data>
 </layer>
 <objectgroup id="5" name="collision">
  <object id="1" x="0" y="0" width="272" height="16"/>
  <object id="2" x="0" y="320" width="272" height="16"/>
  <object id="3" x="0" y="16" width="16" height="304"/>
  <object id="4" x="256" y="16" width="16" height="304"/>
 </objectgroup>
 <objectgroup id="6" name="spawns">
  <object id="5" name="spawn" x="136" y="172">
   <point/>
  </object>
 </objectgroup>
 <objectgroup id="7" name="npcs"/>
 <objectgroup id="8" name="portals"/>
</map>
