<?xml version="1.0" encoding="UTF-8"?>
<map version="1.11" tiledversion="1.12.2" orientation="orthogonal" renderorder="right-down" width="16" height="10" tilewidth="16" tileheight="16" infinite="0" nextlayerid="9" nextobjectid="6">
 <tileset firstgid="1" source="../tilesets/I1_Room_Builder.tsx"/>
 <tileset firstgid="8969" source="../tilesets/I2_Generic_and_Living.tsx"/>
 <tileset firstgid="11241" source="../tilesets/I3_Kitchen_Bath_Bedroom.tsx"/>
 <tileset firstgid="14633" source="../tilesets/I4_Work_and_Civic.tsx"/>
 <tileset firstgid="18281" source="../tilesets/I5_Shops_and_Studios.tsx"/>
 <tileset firstgid="23049" source="../tilesets/I6_Hobby_and_Seasonal.tsx"/>
 <tileset firstgid="28000" source="casino-4-extra.tsx"/>
 <layer id="1" name="subfloor" width="16" height="10">
  <data encoding="csv">
0,0,0,0,0,0,0,0,0,0,0,0,0,0,0,0,
0,0,0,0,0,0,0,0,0,0,0,0,0,0,0,0,
0,0,0,0,0,0,0,0,0,0,0,0,0,0,0,0,
0,0,0,0,0,0,0,0,0,0,0,0,0,0,0,0,
0,0,0,0,0,0,0,0,0,0,0,0,0,0,0,0,
0,0,0,0,0,0,0,0,0,0,0,0,0,0,0,0,
0,0,0,0,0,0,0,0,0,0,0,0,0,0,0,0,
0,0,0,0,0,0,0,0,0,0,0,0,0,0,0,0,
0,0,0,0,0,0,0,0,0,0,0,0,0,0,0,0,
0,0,0,0,0,0,0,0,0,0,0,0,0,0,0,0
</data>
 </layer>
 <layer id="2" name="floor" width="16" height="10">
  <data encoding="csv">
0,28000,1598,1598,1598,1598,1598,1598,1598,1598,1598,1598,1598,1598,5303,0,
0,5374,1602,1602,1602,1602,1602,1602,1602,1602,1602,1602,1602,1602,5379,0,
0,5450,1674,1674,1674,1674,1674,1674,1674,1674,1674,1674,1674,1674,5455,0,
1598,5456,3455,3456,3456,3456,3456,3456,3456,3456,3456,3456,3456,3456,5228,1598,
1602,5532,3531,3532,3532,3532,3532,3532,3532,3532,3532,3532,3532,3532,5304,1602,
1674,5608,3531,3532,3532,3532,3532,3532,3532,3532,3532,3532,3532,3532,28001,1674,
3456,3456,3457,3532,3532,3532,3532,3532,3532,3532,3532,3532,3532,3532,3456,3456,
3532,3532,3532,3532,3532,3532,3532,3532,3532,3532,3532,3532,3532,3532,3532,3532,
3532,3532,3532,3532,3532,3532,3532,3532,3532,3532,3532,3532,3532,3532,3532,3532,
469,469,469,469,469,469,469,469,469,469,469,469,469,469,469,469
</data>
 </layer>
 <layer id="3" name="props" width="16" height="10">
  <data encoding="csv">
0,0,22768,22769,22770,22736,22737,22738,28002,28003,28004,22706,22707,22708,0,0,
0,0,28005,28006,28007,28008,28009,28010,28011,28012,28013,28014,28015,28016,0,0,
0,0,22803,22804,22757,22755,22756,22757,22790,22791,22792,22665,22666,22667,0,0,
0,0,22819,22820,22821,22620,22772,22773,22626,22627,22628,28017,28018,28019,0,22709,
0,0,22636,22637,22638,0,0,0,0,0,0,22668,22669,22670,0,22725,
22700,22701,28017,28020,28019,0,0,0,0,0,0,28017,22621,28019,22700,22701,
22620,22622,0,0,0,0,28021,28022,22605,22607,0,0,0,0,22620,22622,
0,0,0,0,0,0,28017,22621,22625,28023,0,0,0,0,0,0,
0,0,22777,22778,22779,0,0,0,0,0,0,22793,22794,22795,0,0,
0,0,0,0,0,0,0,0,0,0,0,0,0,0,0,0
</data>
 </layer>
 <layer id="4" name="overhead" width="16" height="10">
  <data encoding="csv">
0,0,0,0,0,0,0,0,0,0,0,0,0,0,0,0,
0,0,0,0,0,0,0,0,0,0,0,0,0,0,0,0,
0,0,0,0,0,0,0,0,0,0,0,0,0,0,0,0,
0,0,0,0,0,0,0,0,0,0,0,0,0,0,0,0,
0,0,0,0,0,0,0,0,0,0,0,0,0,0,0,0,
0,0,0,0,0,0,0,0,0,0,0,0,0,0,0,0,
0,0,0,0,0,0,0,0,0,0,0,0,0,0,0,0,
0,0,0,0,0,0,0,0,0,0,0,0,0,0,0,0,
0,0,0,0,0,0,0,0,0,0,0,0,0,0,0,0,
0,0,0,0,0,0,0,0,0,0,0,0,0,0,0,0
</data>
 </layer>
 <objectgroup id="5" name="collision">
  <object id="1" x="0" y="0" width="256" height="16"/>
  <object id="2" x="0" y="144" width="256" height="16"/>
  <object id="3" x="0" y="16" width="16" height="128"/>
  <object id="4" x="240" y="16" width="16" height="128"/>
 </objectgroup>
 <objectgroup id="6" name="spawns">
  <object id="5" name="spawn" x="136" y="92">
   <point/>
  </object>
 </objectgroup>
 <objectgroup id="7" name="npcs"/>
 <objectgroup id="8" name="portals"/>
</map>
