<?xml version="1.0" encoding="UTF-8"?>
<map version="1.11" tiledversion="1.12.2" orientation="orthogonal" renderorder="right-down" width="16" height="33" tilewidth="16" tileheight="16" infinite="0" nextlayerid="9" nextobjectid="6">
 <tileset firstgid="1" source="../tilesets/I1_Room_Builder.tsx"/>
 <tileset firstgid="8969" source="../tilesets/I2_Generic_and_Living.tsx"/>
 <tileset firstgid="11241" source="../tilesets/I3_Kitchen_Bath_Bedroom.tsx"/>
 <tileset firstgid="14633" source="../tilesets/I4_Work_and_Civic.tsx"/>
 <tileset firstgid="18281" source="../tilesets/I5_Shops_and_Studios.tsx"/>
 <tileset firstgid="23049" source="../tilesets/I6_Hobby_and_Seasonal.tsx"/>
 <tileset firstgid="28000" source="casino-2-extra.tsx"/>
 <layer id="1" name="subfloor" width="16" height="33">
  <data encoding="csv">
0,0,0,0,0,0,0,0,0,0,0,0,0,0,0,0,
0,0,0,0,0,0,0,0,0,0,0,0,0,0,0,0,
0,0,0,0,0,0,0,0,0,0,0,0,0,0,0,0,
0,0,0,0,0,0,0,0,0,0,0,0,0,0,0,0,
0,0,0,0,0,0,0,0,0,0,0,0,0,0,0,0,
0,0,0,0,0,0,0,0,0,0,0,0,0,0,0,0,
0,0,0,0,0,0,0,0,0,0,0,0,0,0,0,0,
0,0,0,0,0,0,0,0,0,0,0,0,0,0,0,0,
0,0,0,0,0,0,0,0,0,0,0,0,0,0,0,0,
0,0,0,0,0,0,0,0,0,0,0,0,0,0,0,0,
0,0,0,0,0,0,0,0,0,0,0,0,0,0,0,0,
0,0,0,0,0,0,0,0,0,0,0,0,0,0,0,0,
0,0,0,0,0,0,0,0,0,0,0,0,0,0,0,0,
0,0,0,0,0,0,0,0,0,0,0,0,0,0,0,0,
0,0,0,0,0,0,0,0,0,0,0,0,0,0,0,0,
0,0,0,0,0,0,0,0,0,0,0,0,0,0,0,0,
0,0,0,0,0,0,0,0,0,0,0,0,0,0,0,0,
0,0,0,0,0,0,0,0,0,0,0,0,0,0,0,0,
0,0,0,0,0,0,0,0,0,0,0,0,0,0,0,0,
0,0,0,0,0,0,0,0,0,0,0,0,0,0,0,0,
0,0,0,0,0,0,0,0,0,0,0,0,0,0,0,0,
0,0,0,0,0,0,0,0,0,0,0,0,0,0,0,0,
0,0,0,0,0,0,0,0,0,0,0,0,0,0,0,0,
0,0,0,0,0,0,0,0,0,0,0,0,0,0,0,0,
0,0,0,0,0,0,0,0,0,0,0,0,0,0,0,0,
0,0,0,0,0,0,0,0,0,0,0,0,0,0,0,0,
0,0,0,0,0,0,0,0,0,0,0,0,0,0,0,0,
0,0,0,0,0,0,0,0,0,0,0,0,0,0,0,0,
0,0,0,0,0,0,0,0,0,0,0,0,0,0,0,0,
0,0,0,0,0,0,0,0,0,0,0,0,0,0,0,0,
0,0,0,0,0,0,0,0,0,0,0,0,0,0,0,0,
0,0,0,0,0,0,0,0,0,0,0,0,0,0,0,0,
0,0,0,0,0,0,0,0,0,0,0,0,0,0,0,0
</data>
 </layer>
 <layer id="2" name="floor" width="16" height="33">
  <data encoding="csv">
0,0,28000,1142,1142,1142,1142,1142,1142,1142,1142,1142,1142,28001,0,0,
0,0,4310,1146,1146,1146,1146,1146,1146,1146,1146,1146,1146,4315,0,0,
0,0,4386,1218,1218,1218,1218,1218,1218,1218,1218,1218,1218,4391,0,0,
0,0,4311,3151,3152,3152,3152,3152,3152,3152,3152,3152,3152,4314,0,0,
0,0,28002,1142,1143,3228,3228,3228,3228,3228,3228,1141,1142,28003,0,0,
0,0,4310,1146,1147,3228,3228,3228,3228,3228,3228,1145,1146,4315,0,0,
0,0,4386,1218,1219,3227,3228,3228,3228,3228,3228,1217,1218,4391,0,0,
0,0,4311,3151,3152,3153,3228,3228,3228,3228,3228,3152,3152,4314,0,0,
0,0,28004,28005,1142,1142,1142,28006,28007,1142,1142,1142,28008,28009,0,0,
4159,1142,4162,4310,1146,1146,1146,28010,28011,1146,1146,1146,4315,4159,1142,4162,
4235,1218,28012,4386,1218,1218,1218,28013,28014,1218,1218,1218,4391,4235,1218,28012,
4311,3151,4314,4311,3151,3152,3152,28015,28016,3152,3152,3152,4314,4311,3151,4314,
4311,28017,4314,4311,28017,28018,28019,28018,28019,28018,28019,28018,4314,4311,28017,4314,
4311,28020,4314,4311,28020,28021,28021,28021,28021,28021,28021,28021,4314,4311,28020,4314,
0,0,0,4311,3152,3152,3152,3152,3152,3152,3152,3152,4314,0,0,0,
0,4159,1142,1142,1142,1143,3228,3228,3228,3228,1141,1142,1142,1142,4162,0,
0,4235,1218,1218,1218,1219,3227,3228,3228,3228,1217,1218,1218,1218,28012,0,
0,4311,3151,3152,3152,3152,3153,3228,3228,3228,3152,3152,3152,3152,4314,0,
0,28022,1142,1142,1142,1142,1143,3228,3228,1141,1142,1142,1142,1142,28023,0,
0,4235,1218,1218,1218,1218,1219,3227,3228,1217,1218,1218,1218,1218,28012,0,
0,4311,3151,3152,3152,3152,3152,3153,3228,3152,3152,3152,3152,3152,4314,0,
0,1142,1142,1142,1142,1142,1143,3228,3228,1141,1142,1142,1142,1142,1142,0,
0,1218,1218,1218,1218,1218,1219,3227,3228,1217,1218,1218,1218,1218,1218,0,
0,3152,3152,3152,3152,3152,3152,3153,3228,3152,3152,3152,3152,3152,3152,0,
0,28024,3228,3228,3228,3228,3228,3228,3228,3228,3228,3228,3228,3228,28025,0,
0,4311,28018,28019,28018,28019,28018,3228,3228,28019,28018,28019,28018,28019,4314,0,
0,4311,2099,2100,2100,2100,2100,28019,28018,2099,2100,2100,2100,2100,4314,0,
0,4311,2175,2176,2176,2176,2176,2100,2100,28026,2176,2176,2176,2176,4314,0,
0,4311,2175,2176,2176,2176,2176,2176,2176,2176,2176,2176,2176,2176,4314,0,
0,4311,2175,2176,2176,2176,2176,2176,2176,2176,2176,2176,2176,2176,4314,0,
0,4311,2175,2176,2176,2176,2176,2176,2176,2176,2176,2176,2176,2176,4314,0,
0,4311,2175,2176,2176,2176,2176,2176,2176,2176,2176,2176,2176,2176,4314,0,
0,28004,28027,28027,28027,28027,28027,28027,28027,28027,28027,28027,28027,28027,28009,0
</data>
 </layer>
 <layer id="3" name="props" width="16" height="33">
  <data encoding="csv">
0,0,0,0,0,0,0,0,0,0,0,0,0,0,0,0,
0,0,0,21849,21850,21851,21852,21853,21854,21855,21856,21857,21858,0,0,0,
0,0,0,28028,28029,28030,28031,28032,28033,28034,28035,28036,28037,0,0,0,
0,0,0,21881,21882,21883,21884,21885,21886,21887,21888,21889,21890,0,0,0,
0,0,28038,28039,28040,28041,28042,0,0,28043,28044,28045,28046,0,0,0,
0,0,0,28047,28048,28049,28050,0,0,28051,28052,28053,28054,0,0,0,
0,0,0,28055,28056,28057,28058,0,0,28059,28060,28061,28062,0,0,0,
0,0,0,21593,21594,0,0,0,0,0,0,21593,21594,0,0,0,
0,0,0,0,21344,0,0,0,0,0,0,21344,0,0,0,0,
0,0,0,0,21360,21721,21722,0,0,21725,21726,21360,0,0,0,0,
0,21781,0,0,21376,28063,21690,0,0,28064,21692,21376,0,0,21763,0,
0,21780,0,0,28065,21705,21706,0,28066,21709,21708,28065,0,0,21780,0,
0,0,0,0,28067,21676,0,0,0,0,21673,28068,0,0,0,0,
0,0,0,0,28069,21692,0,0,0,0,21691,28070,0,0,0,0,
0,0,0,0,28071,28072,0,0,0,0,28073,28074,0,0,0,0,
0,0,21626,21627,28075,21454,0,0,0,0,28076,28077,21626,21627,0,0,
0,0,21642,21643,28078,28079,0,0,0,0,28080,28081,21642,21643,0,0,
0,0,21658,21659,28082,28083,0,0,0,0,28084,28085,28086,21659,0,0,
0,0,21421,21422,21529,21530,0,0,0,0,21531,21532,28087,28088,0,0,
0,0,21437,21438,21545,21546,21503,0,0,21487,21547,21548,28089,28090,0,0,
0,0,0,0,0,0,21519,0,0,21519,0,0,0,0,0,0,
0,0,21563,21564,21425,21426,21457,0,0,28091,21423,21424,21595,21596,0,0,
0,0,21579,21580,21441,21442,28092,0,0,28093,21439,21440,21611,21612,0,0,
0,0,0,0,0,0,21641,0,0,21641,0,0,0,0,0,0,
0,0,28094,28095,28096,21511,21512,0,0,21508,21509,21510,21511,21512,0,0,
0,0,28097,28098,28099,28100,21528,0,0,28101,28102,28103,28104,28105,0,0,
0,0,21520,21601,21602,21603,21591,0,0,21636,28106,28107,28108,28109,0,0,
0,0,21536,28110,28111,21539,0,0,0,21652,28112,28113,28114,28115,0,0,
0,0,21556,21557,21558,21559,0,0,21588,21652,28116,21654,21655,21656,0,0,
0,0,21572,21573,21574,21575,0,0,0,21647,21669,21670,21671,21672,0,0,
0,0,0,21552,21553,21554,21555,0,0,21552,21553,21554,21555,21588,0,0,
0,0,21604,21568,21569,21570,21571,21604,21591,21568,21569,21570,21571,21604,0,0,
0,0,0,0,28117,0,0,0,0,0,0,0,0,0,0,0
</data>
 </layer>
 <layer id="4" name="overhead" width="16" height="33">
  <data encoding="csv">
0,0,0,0,0,0,0,0,0,0,0,0,0,0,0,0,
0,0,0,0,0,0,0,0,0,0,0,0,0,0,0,0,
0,0,0,0,0,0,0,0,0,0,0,0,0,0,0,0,
0,0,0,0,0,0,0,0,0,0,0,0,0,0,0,0,
0,0,0,0,0,0,0,0,0,0,0,0,0,0,0,0,
0,0,0,0,0,0,0,0,0,0,0,0,0,0,0,0,
0,0,0,0,0,0,0,0,0,0,0,0,0,0,0,0,
0,0,0,0,0,0,0,0,0,0,0,0,0,0,0,0,
0,0,0,0,0,0,0,0,0,0,0,0,0,0,0,0,
0,0,0,0,0,0,0,0,0,0,0,0,0,0,0,0,
0,0,0,0,0,0,0,0,0,0,0,0,0,0,0,0,
0,0,0,0,0,0,0,0,0,0,0,0,0,0,0,0,
0,0,0,0,0,0,0,0,0,0,0,0,0,0,0,0,
0,0,0,0,0,0,0,0,0,0,0,0,0,0,0,0,
0,0,0,0,0,0,0,0,0,0,0,0,0,0,0,0,
0,0,0,0,0,0,0,0,0,0,0,0,0,0,0,0,
0,0,0,0,0,0,0,0,0,0,0,0,0,0,0,0,
0,0,0,0,0,0,0,0,0,0,0,0,0,0,0,0,
0,0,0,0,0,0,0,0,0,0,0,0,0,0,0,0,
0,0,0,0,0,0,0,0,0,0,0,0,0,0,0,0,
0,0,0,0,0,0,0,0,0,0,0,0,0,0,0,0,
0,0,0,0,0,0,0,0,0,0,0,0,0,0,0,0,
0,0,0,0,0,0,0,0,0,0,0,0,0,0,0,0,
0,0,0,0,0,0,0,0,0,0,0,0,0,0,0,0,
0,0,0,0,0,0,0,0,0,0,0,0,0,0,0,0,
0,0,0,0,0,0,0,0,0,0,0,0,0,0,0,0,
0,0,0,0,0,0,0,0,0,0,0,0,0,0,0,0,
0,0,0,0,0,0,0,0,0,0,0,0,0,0,0,0,
0,0,0,0,0,0,0,0,0,0,0,0,0,0,0,0,
0,0,0,0,0,0,0,0,0,0,0,0,0,0,0,0,
0,0,0,0,0,0,0,0,0,0,0,0,0,0,0,0,
0,0,0,0,0,0,0,0,0,0,0,0,0,0,0,0,
0,0,0,0,0,0,0,0,0,0,0,0,0,0,0,0
</data>
 </layer>
 <objectgroup id="5" name="collision">
  <object id="1" x="0" y="0" width="256" height="16"/>
  <object id="2" x="0" y="512" width="256" height="16"/>
  <object id="3" x="0" y="16" width="16" height="496"/>
  <object id="4" x="240" y="16" width="16" height="496"/>
 </objectgroup>
 <objectgroup id="6" name="spawns">
  <object id="5" name="spawn" x="136" y="268">
   <point/>
  </object>
 </objectgroup>
 <objectgroup id="7" name="npcs"/>
 <objectgroup id="8" name="portals"/>
</map>
