<?xml version="1.0" encoding="UTF-8"?>
<map version="1.11" tiledversion="1.12.2" orientation="orthogonal" renderorder="right-down" width="20" height="17" tilewidth="16" tileheight="16" infinite="0" nextlayerid="9" nextobjectid="6">
 <tileset firstgid="1" source="../tilesets/I1_Room_Builder.tsx"/>
 <tileset firstgid="8969" source="../tilesets/I2_Generic_and_Living.tsx"/>
 <tileset firstgid="11241" source="../tilesets/I3_Kitchen_Bath_Bedroom.tsx"/>
 <tileset firstgid="14633" source="../tilesets/I4_Work_and_Civic.tsx"/>
 <tileset firstgid="18281" source="../tilesets/I5_Shops_and_Studios.tsx"/>
 <tileset firstgid="23049" source="../tilesets/I6_Hobby_and_Seasonal.tsx"/>
 <tileset firstgid="28000" source="casino-entry-extra.tsx"/>
 <layer id="1" name="subfloor" width="20" height="17">
  <data encoding="csv">
0,0,0,0,0,0,0,0,0,0,0,0,0,0,0,0,0,0,0,0,
0,0,0,0,0,0,0,0,0,0,0,0,0,0,0,0,0,0,0,0,
0,0,0,0,0,0,0,0,0,0,0,0,0,0,0,0,0,0,0,0,
0,0,0,0,0,0,0,0,0,0,0,0,0,0,0,0,0,0,0,0,
0,0,0,0,0,0,0,0,0,0,0,0,0,0,0,0,0,0,0,0,
0,0,0,0,0,0,0,0,0,0,0,0,0,0,0,0,0,0,0,0,
0,0,0,0,0,0,0,0,0,0,0,0,0,0,0,0,0,0,0,0,
0,0,0,0,0,0,0,0,0,0,0,0,0,0,0,0,0,0,0,0,
0,0,0,0,0,0,0,0,0,0,0,0,0,0,0,0,0,0,0,0,
0,0,0,0,0,0,0,0,0,0,0,0,0,0,0,0,0,0,0,0,
0,0,0,0,0,0,0,0,0,0,0,0,0,0,0,0,0,0,0,0,
0,0,0,0,0,0,0,0,0,0,0,0,0,0,0,0,0,0,0,0,
0,0,0,0,0,0,0,0,0,0,0,0,0,0,0,0,0,0,0,0,
0,0,0,0,0,0,0,0,0,0,0,0,0,0,0,0,0,0,0,0,
0,0,0,0,0,0,0,0,0,0,0,0,0,0,0,0,0,0,0,0,
0,0,0,0,0,0,0,0,0,0,0,0,0,0,0,0,0,0,0,0,
0,0,0,0,0,0,0,0,0,0,0,0,0,0,0,0,0,0,0,0
</data>
 </layer>
 <layer id="2" name="floor" width="20" height="17">
  <data encoding="csv">
0,4242,2805,2805,2805,2805,2805,2805,2805,2805,4247,0,4242,2805,2805,2805,2805,2805,2805,4247,
0,4318,3133,3133,3133,3133,3133,3133,3133,3133,4323,0,4318,3133,3133,3133,3133,3133,3133,4323,
0,4394,4396,4396,4396,4396,4396,4396,4396,4396,4399,0,4394,4396,4396,4396,4396,4396,4396,4399,
0,4319,3307,3308,3308,3308,3308,3308,3308,3308,4322,0,4319,3307,3308,3308,3308,3308,3308,4322,
0,4319,3383,3384,3384,3384,3384,3384,3384,3384,4322,0,4319,3383,3384,3384,3384,3384,3384,4322,
0,4319,3383,3384,3384,3384,3384,3384,3384,3384,4322,0,4319,3383,3384,3384,3384,3384,3384,4322,
0,4319,3383,3384,3384,3384,3384,3384,3384,3384,4322,0,4319,3383,3384,3384,3384,3384,3384,4322,
0,4319,3383,3384,3384,3384,3384,3384,3384,3384,4322,0,4319,3383,3384,3384,3384,3384,3384,4322,
2805,2805,28000,28001,2805,2805,2805,2805,28000,28001,2805,2805,2805,2805,2805,28000,28001,2805,2805,4171,
3133,3133,28002,28003,3133,3133,3133,3133,28002,28003,3133,3133,3133,3133,3133,28002,28003,3133,3133,4323,
4396,4396,28004,28005,4396,4396,4396,4396,28004,28005,4396,4396,4396,4396,4396,28004,28005,4396,4396,4399,
3308,3308,28006,28007,3308,3308,3308,3308,28006,28007,3308,3308,3308,3308,3308,28006,28007,3308,3308,4322,
3384,3384,3384,3384,3384,3384,3384,3384,3384,3384,3384,3384,3384,3384,3384,3384,3384,3384,3384,4322,
3384,3384,3384,3384,3384,3384,3384,3384,3384,3384,3384,3384,3384,3384,3384,3384,3384,3384,3384,4322,
3384,3384,3384,3384,3384,3384,3384,3384,3384,3384,3384,3384,3384,3384,3384,3384,3384,3384,3384,4322,
3384,3384,3384,3384,3384,3384,3384,3384,3384,3384,3384,3384,3384,3384,3384,3384,3384,3384,3384,4322,
3384,3384,3384,3384,3384,3384,3384,3384,3384,3384,3384,3384,3384,3384,3384,3384,3384,3384,3384,4322
</data>
 </layer>
 <layer id="3" name="props" width="20" height="17">
  <data encoding="csv">
0,0,0,0,0,0,0,0,0,0,0,0,0,0,0,21317,21318,0,0,0,
0,0,28008,28009,28010,21225,21226,21286,21311,21312,0,0,0,28011,0,21333,28012,0,28011,0,
0,0,28013,28014,28015,28016,28017,28018,28019,28020,0,0,0,28021,28021,21349,21350,28021,28021,0,
0,0,28022,28023,28023,28023,28023,28024,28025,28026,0,0,28027,28028,28028,28029,28029,28028,28028,28030,
0,0,0,0,0,0,0,21305,21306,0,0,0,28027,28028,28028,28029,28029,28028,28028,28030,
0,0,0,0,0,0,0,21323,21324,0,0,0,28027,28028,28028,28029,28029,28028,28028,28030,
0,0,0,0,0,0,0,21049,21050,0,0,0,28027,28028,28028,28029,28029,28028,28028,28030,
0,0,0,0,0,0,0,21353,21354,0,0,0,28027,28028,28028,28029,28029,28028,28028,28030,
0,21343,0,0,21343,0,0,21343,0,0,21343,0,0,0,21343,827,828,21343,0,0,
0,21359,0,0,21359,28031,28032,21359,0,0,21359,0,28033,0,21359,28034,28035,21359,0,0,
0,21375,28036,28037,21375,28038,28039,21375,0,0,21375,0,28040,0,21375,28041,980,21375,0,0,
0,21391,28042,21168,21391,0,0,21391,0,0,21391,0,0,0,21391,0,0,21391,0,0,
0,0,0,0,0,0,0,0,0,0,0,0,0,0,0,0,0,0,0,0,
21343,0,21315,21316,0,0,0,21381,21382,21383,21316,0,0,0,0,21315,21316,0,21343,0,
21359,0,28043,28044,21314,0,0,21429,21430,21431,21432,21330,0,0,0,21427,21428,21314,21359,0,
21375,0,21379,21380,21329,0,0,21445,21446,21447,21448,21329,0,0,0,21379,21380,21329,21375,0,
21391,0,0,0,0,0,0,0,0,0,0,0,0,0,0,0,0,0,21391,0
</data>
 </layer>
 <layer id="4" name="overhead" width="20" height="17">
  <data encoding="csv">
0,0,0,0,0,0,0,0,0,0,0,0,0,0,0,0,0,0,0,0,
0,0,0,0,0,0,0,0,0,0,0,0,0,0,0,0,0,0,0,0,
0,0,0,0,0,0,0,0,0,0,0,0,0,0,0,0,0,0,0,0,
0,0,0,0,0,0,0,0,0,0,0,0,0,0,0,0,0,0,0,0,
0,0,0,0,0,0,0,0,0,0,0,0,0,0,0,0,0,0,0,0,
0,0,0,0,0,0,0,0,0,0,0,0,0,0,0,0,0,0,0,0,
0,0,0,0,0,0,0,0,0,0,0,0,0,0,0,0,0,0,0,0,
0,0,0,0,0,0,0,0,0,0,0,0,0,0,0,0,0,0,0,0,
0,0,0,0,0,0,0,0,0,0,0,0,0,0,0,0,0,0,0,0,
0,0,0,0,0,0,0,0,0,0,0,0,0,0,0,0,0,0,0,0,
0,0,0,0,0,0,0,0,0,0,0,0,0,0,0,0,0,0,0,0,
0,0,0,0,0,0,0,0,0,0,0,0,0,0,0,0,0,0,0,0,
0,0,0,0,0,0,0,0,0,0,0,0,0,0,0,0,0,0,0,0,
0,0,0,0,0,0,0,0,0,0,0,0,0,0,0,0,0,0,0,0,
0,0,0,0,0,0,0,0,0,0,0,0,0,0,0,0,0,0,0,0,
0,0,0,0,0,0,0,0,0,0,0,0,0,0,0,0,0,0,0,0,
0,0,0,0,0,0,0,0,0,0,0,0,0,0,0,0,0,0,0,0
</data>
 </layer>
 <objectgroup id="5" name="collision">
  <object id="1" x="0" y="0" width="320" height="16"/>
  <object id="2" x="0" y="256" width="320" height="16"/>
  <object id="3" x="0" y="16" width="16" height="240"/>
  <object id="4" x="304" y="16" width="16" height="240"/>
 </objectgroup>
 <objectgroup id="6" name="spawns">
  <object id="5" name="spawn" x="168" y="140">
   <point/>
  </object>
 </objectgroup>
 <objectgroup id="7" name="npcs"/>
 <objectgroup id="8" name="portals"/>
</map>
