<?xml version="1.0" encoding="UTF-8"?>
<map version="1.11" tiledversion="1.12.2" orientation="orthogonal" renderorder="right-down" width="14" height="14" tilewidth="16" tileheight="16" infinite="0" nextlayerid="9" nextobjectid="7">
 <tileset firstgid="1" source="../tilesets/I1_Room_Builder.tsx"/>
 <tileset firstgid="8969" source="../tilesets/I2_Generic_and_Living.tsx"/>
 <tileset firstgid="11241" source="../tilesets/I3_Kitchen_Bath_Bedroom.tsx"/>
 <tileset firstgid="14633" source="../tilesets/I4_Work_and_Civic.tsx"/>
 <tileset firstgid="18281" source="../tilesets/I5_Shops_and_Studios.tsx"/>
 <tileset firstgid="23049" source="../tilesets/I6_Hobby_and_Seasonal.tsx"/>
 <tileset firstgid="27641" source="home-generic-extra.tsx"/>
 <layer id="1" name="subfloor" width="14" height="14">
  <data encoding="csv">
0,0,0,0,0,0,0,0,0,0,0,0,0,0,
0,0,0,0,0,0,0,0,0,0,0,0,0,0,
0,0,0,0,0,0,0,0,0,0,0,0,0,0,
0,0,0,0,0,0,0,0,0,0,0,0,0,0,
0,0,0,0,0,0,0,0,0,0,0,0,0,0,
0,0,0,0,0,0,0,0,0,0,0,0,0,0,
0,0,0,0,0,0,0,0,0,0,0,0,0,0,
0,0,0,0,0,0,0,0,0,0,0,0,0,0,
0,0,0,0,0,0,0,0,0,0,0,0,0,0,
0,0,0,0,0,0,0,0,0,0,0,0,0,0,
0,0,0,0,0,0,0,0,0,0,0,0,0,0,
0,0,0,0,0,0,0,0,0,0,0,0,0,0,
0,0,0,0,0,0,0,0,0,0,0,0,0,0,
0,0,0,0,0,0,0,0,0,0,0,0,0,0
</data>
 </layer>
 <layer id="2" name="floor" width="14" height="14">
  <data encoding="csv">
0,0,27641,1142,1142,1142,1143,3075,1141,1142,1142,1142,4162,0,
0,0,4235,1218,1218,1218,1219,3077,1217,1218,1218,1218,4237,0,
1142,1142,4387,2999,3000,3000,3000,3000,3000,3000,3000,3000,4314,0,
1218,1218,4463,3075,3076,3076,3076,3076,3076,3076,3076,3076,4390,1142,
3000,3000,3000,3001,3076,3076,3076,3076,3076,3076,3076,3076,4466,1218,
3076,3076,3076,3076,3076,3076,3076,3076,3076,3076,3076,3076,3000,3000,
469,469,27642,3076,3076,3076,3076,3076,3076,3076,3076,3076,27643,469,
0,0,4311,3075,3076,3076,3076,3076,3076,3076,3076,3076,4314,0,
0,0,4160,1142,1142,1142,1143,3076,1141,1142,1142,1142,4161,0,
0,0,4235,1218,1218,1218,1219,3075,1217,1218,1218,1218,4237,0,
0,0,4311,3315,3316,3316,3316,3317,3316,3316,3316,3316,4314,0,
0,0,4311,3391,3392,3392,3392,3392,3392,3392,3392,3392,4314,0,
0,0,4311,3391,3392,3392,3392,3392,3392,3392,3392,3392,4314,0,
0,0,4531,469,469,469,469,0,469,469,469,469,4534,0
</data>
 </layer>
 <layer id="3" name="props" width="14" height="14">
  <data encoding="csv">
0,0,0,0,0,0,0,0,0,0,0,0,0,0,
0,0,0,0,0,0,0,0,0,0,0,0,0,0,
0,0,0,0,0,0,0,0,0,0,0,0,0,0,
0,0,0,0,0,0,0,0,0,0,0,0,0,0,
0,0,0,0,0,0,0,0,0,0,0,0,0,0,
0,0,0,0,27652,0,0,0,0,0,0,0,0,0,
0,0,0,0,0,0,0,0,0,0,0,0,0,0,
0,0,0,0,0,0,0,0,0,0,0,0,0,0,
0,0,0,0,0,0,0,0,0,0,0,0,0,0,
0,0,0,0,0,0,0,0,0,0,0,0,0,0,
0,0,0,0,0,0,0,0,0,0,0,0,0,0,
0,0,0,0,0,0,0,0,0,0,0,0,0,0,
0,0,0,0,0,0,0,0,0,0,0,0,0,0,
0,0,0,0,0,0,0,0,0,0,0,0,0,0
</data>
 </layer>
 <layer id="4" name="overhead" width="14" height="14">
  <data encoding="csv">
0,0,0,0,0,0,0,0,0,0,0,0,0,0,
0,0,0,0,0,0,0,0,0,0,0,0,0,0,
0,0,0,0,0,0,0,0,0,0,0,0,0,0,
0,0,0,0,0,0,0,0,0,0,0,0,0,0,
0,0,0,0,0,0,0,0,0,0,0,0,0,0,
0,0,0,0,0,0,0,0,0,0,0,0,0,0,
0,0,0,0,0,0,0,0,0,0,0,0,0,0,
0,0,0,0,0,0,0,0,0,0,0,0,0,0,
0,0,0,0,0,0,0,0,0,0,0,0,0,0,
0,0,0,0,0,0,0,0,0,0,0,0,0,0,
0,0,0,0,0,0,0,0,0,0,0,0,0,0,
0,0,0,0,0,0,0,0,0,0,0,0,0,0,
0,0,0,0,0,0,0,0,0,0,0,0,0,0,
0,0,0,0,0,0,0,0,0,0,0,0,0,0
</data>
 </layer>
 <objectgroup id="5" name="collision">
  <object id="1" x="0" y="0" width="224" height="16"/>
  <object id="2" x="0" y="208" width="224" height="16"/>
  <object id="3" x="0" y="16" width="16" height="192"/>
  <object id="4" x="208" y="16" width="16" height="192"/>
 </objectgroup>
 <objectgroup id="6" name="spawns">
  <object id="5" name="spawn" x="112" y="208">
   <point/>
  </object>
 </objectgroup>
 <objectgroup id="7" name="npcs"/>
 <objectgroup id="8" name="portals">
  <object id="6" name="neighborhood" type="spawn" x="96" y="192" width="32" height="16"/>
 </objectgroup>
</map>
